2/images/social/telegram.svg

<svg width="14" height="12" viewBox="0 0 14 12" fill="none" xmlns="http://www.w3.org/2000/svg">
<path d="M12.4431 0.0735832L0.623071 4.63158C-0.183596 4.95558 -0.178929 5.40558 0.475071 5.60625L3.50974 6.55292L10.5311 2.12292C10.8631 1.92092 11.1664 2.02958 10.9171 2.25092L5.2284 7.38492H5.22707L5.2284 7.38558L5.01907 10.5136C5.32574 10.5136 5.46107 10.3729 5.63307 10.2069L7.10707 8.77358L10.1731 11.0383C10.7384 11.3496 11.1444 11.1896 11.2851 10.5149L13.2977 1.02958C13.5037 0.203583 12.9824 -0.170417 12.4431 0.0735832V0.0735832Z" fill="#444444"/>
</svg>

<svg width="14" height="12" fill="none" xmlns="http://www.w3.org/2000/svg"><path d="M12.44.07.62 4.63c-.8.33-.8.78-.14.98l3.03.94 7.02-4.43c.33-.2.64-.09.39.13l-5.7 5.13-.2 3.13c.3 0 .44-.14.61-.3l1.48-1.44 3.06 2.27c.57.31.97.15 1.12-.53l2-9.48c.21-.83-.3-1.2-.85-.96Z" fill="#444"/></svg>
